img/logo-onboarding.svg

<svg width="72" height="72" viewBox="0 0 72 72" fill="none" xmlns="http://www.w3.org/2000/svg">
<g id="Group 21">
<circle id="Oval Copy 2" cx="36" cy="36" r="36" fill="url(#paint0_linear)"/>
<path id="Combined Shape" fill-rule="evenodd" clip-rule="evenodd" d="M52.129 39.2258C52.129 40.8374 51.3858 42.2774 50.2252 43.2252C53.5077 43.8465 56 46.7323 56 50.1936V56H41.1613V48.5806C41.1613 48.0471 40.7271 47.6129 40.1935 47.6129H39.2258V48.7639L37.4239 49.2065C37.3445 49.4206 37.2548 49.6355 37.1555 49.8484L38.1181 51.4387L34.6652 54.8916L33.0748 53.929C32.8613 54.0284 32.6471 54.1181 32.4329 54.1974L31.9897 56H27.1071L26.6645 54.1981C26.4503 54.1187 26.2355 54.029 26.0226 53.9297L24.4323 54.8923L20.9794 51.4394L21.9419 49.849C21.8426 49.6355 21.7529 49.4213 21.6735 49.2071L19.871 48.7639V43.8813L21.6735 43.4381C21.7529 43.2239 21.8426 43.0097 21.9419 42.7961L20.9794 41.2058L21.669 40.5161H20.5161C19.449 40.5161 18.5806 39.6477 18.5806 38.5806V37.2903C18.5806 36.2232 19.449 35.3548 20.5161 35.3548H21.8065C22.1626 35.3548 22.4516 35.0658 22.4516 34.7097V34.0645H16V30.8387C16 27.8303 17.8845 25.26 20.5323 24.229C19.3548 23.4129 18.5806 22.0535 18.5806 20.5161C18.5806 18.0265 20.6071 16 23.0968 16C25.5865 16 27.6129 18.0265 27.6129 20.5161C27.6129 22.0535 26.8387 23.4129 25.6613 24.229C27.3858 24.9 28.7819 26.2245 29.5484 27.8994C30.3148 26.2245 31.711 24.9006 33.4355 24.229C32.2581 23.4129 31.4839 22.0535 31.4839 20.5161C31.4839 18.0265 33.5103 16 36 16C38.4897 16 40.5161 18.0265 40.5161 20.5161C40.5161 22.0535 39.7419 23.4129 38.5645 24.229C41.2123 25.26 43.0968 27.8303 43.0968 30.8387V34.0645H36.6452V34.7097C36.6452 35.0658 36.9342 35.3548 37.2903 35.3548H38.5806C39.6477 35.3548 40.5161 36.2232 40.5161 37.2903V38.5806C40.5161 39.6477 39.6477 40.5161 38.5806 40.5161H37.4277L38.1174 41.2058L37.1542 42.7961C37.1819 42.8559 37.2055 42.9158 37.2291 42.9758C37.245 43.0162 37.2609 43.0565 37.2781 43.0968H43.5652C42.4897 42.1503 41.8065 40.7677 41.8065 39.2258C41.8065 36.38 44.1219 34.0645 46.9677 34.0645C49.8135 34.0645 52.129 36.38 52.129 39.2258ZM46.9677 35.3548C44.8329 35.3548 43.0968 37.091 43.0968 39.2258C43.0968 41.3606 44.8329 43.0968 46.9677 43.0968C49.1026 43.0968 50.8387 41.3606 50.8387 39.2258C50.8387 37.091 49.1026 35.3548 46.9677 35.3548ZM32.7742 20.5161C32.7742 18.7374 34.2213 17.2903 36 17.2903C37.7787 17.2903 39.2258 18.7374 39.2258 20.5161C39.2258 22.2948 37.7787 23.7419 36 23.7419C34.2213 23.7419 32.7742 22.2948 32.7742 20.5161ZM41.8065 30.8387C41.8065 27.6368 39.2019 25.0323 36 25.0323C32.7981 25.0323 30.1935 27.6368 30.1935 30.8387V32.7742H32.129V27.6129H33.4194V32.7742H38.5806V27.6129H39.871V32.7742H41.8065V30.8387ZM19.871 20.5161C19.871 18.7374 21.3181 17.2903 23.0968 17.2903C24.8755 17.2903 26.3226 18.7374 26.3226 20.5161C26.3226 22.2948 24.8755 23.7419 23.0968 23.7419C21.3181 23.7419 19.871 22.2948 19.871 20.5161ZM23.0968 25.0323C19.8948 25.0323 17.2903 27.6368 17.2903 30.8387V32.7742H19.2258V27.6129H20.5161V32.7742H25.6774V27.6129H26.9677V32.7742H28.9032V30.8387C28.9032 27.6368 26.2987 25.0323 23.0968 25.0323ZM20.5161 39.2258C20.16 39.2258 19.871 38.9368 19.871 38.5806V37.2903C19.871 36.9342 20.16 36.6452 20.5161 36.6452H21.8065C22.8735 36.6452 23.7419 35.7768 23.7419 34.7097V34.0645H28.9032H30.1935H35.3548V34.7097C35.3548 35.7768 36.2232 36.6452 37.2903 36.6452H38.5806C38.9368 36.6452 39.2258 36.9342 39.2258 37.2903V38.5806C39.2258 38.9368 38.9368 39.2258 38.5806 39.2258H36.1374L34.6652 37.7535L33.0748 38.7161C32.8613 38.6168 32.6471 38.5271 32.4329 38.4477L31.9897 36.6452H27.1071L26.6639 38.4477C26.4497 38.5271 26.2355 38.6168 26.0219 38.7161L24.4316 37.7535L22.9594 39.2258H20.5161ZM36.4226 48.1245L37.9355 47.7523V47.6129H35.2097C34.6181 50.2239 32.2781 52.129 29.5484 52.129C26.3465 52.129 23.7419 49.5245 23.7419 46.3226C23.7419 43.1206 26.3465 40.5161 29.5484 40.5161C31.4839 40.5161 33.2884 41.5006 34.3613 43.0974H35.8639C35.8581 43.0858 35.8529 43.0742 35.8471 43.0626L35.68 42.7413L36.4897 41.4032L34.4684 39.3819L33.1303 40.1916L32.809 40.0245C32.4387 39.8323 32.0639 39.6755 31.6961 39.5587L31.3503 39.4497L30.9781 37.9355H28.1187L27.7471 39.449L27.4013 39.5581C27.0329 39.6748 26.6581 39.8316 26.2884 40.0239L25.9671 40.191L24.629 39.3813L22.6077 41.4026L23.4174 42.7406L23.2503 43.0619C23.0581 43.4323 22.9013 43.8071 22.7845 44.1748L22.6755 44.5206L21.1613 44.8929V47.7523L22.6748 48.1239L22.7839 48.4697C22.9006 48.8381 23.0574 49.2129 23.2497 49.5826L23.4168 49.9039L22.6071 51.2419L24.6284 53.2632L25.9665 52.4535L26.2877 52.6206C26.6574 52.8129 27.0323 52.9697 27.4019 53.0871L27.7465 53.1968L28.1187 54.7097H30.9781L31.3497 53.1961L31.6955 53.0871C32.0639 52.9703 32.4387 52.8135 32.8084 52.6213L33.1297 52.4542L34.4677 53.2639L36.489 51.2426L35.6794 49.9045L35.8465 49.5832C36.0387 49.2136 36.1955 48.8387 36.3129 48.469L36.4226 48.1245ZM31.0897 47.4852C30.7323 47.9581 30.171 48.2581 29.5484 48.2581C28.4813 48.2581 27.6129 47.3897 27.6129 46.3226C27.6129 45.2555 28.4813 44.3871 29.5484 44.3871C29.594 44.3871 29.6385 44.3949 29.6832 44.4028C29.7087 44.4073 29.7342 44.4118 29.76 44.4148C29.6271 44.7019 29.5484 45.0181 29.5484 45.3548C29.5484 46.3477 30.1968 47.1839 31.0897 47.4852ZM29.5484 43.0968C29.9768 43.0968 30.4006 43.1839 30.7935 43.3477C31.0994 43.1929 31.4406 43.0968 31.8065 43.0968H32.7039C31.869 42.2839 30.7394 41.8065 29.5484 41.8065C27.0587 41.8065 25.0323 43.8329 25.0323 46.3226C25.0323 48.8123 27.0587 50.8387 29.5484 50.8387C31.571 50.8387 33.3148 49.4942 33.8748 47.6129H32.5039C31.9974 48.7729 30.8471 49.5484 29.5484 49.5484C27.7697 49.5484 26.3226 48.1013 26.3226 46.3226C26.3226 44.5439 27.7697 43.0968 29.5484 43.0968ZM54.7097 54.7097H52.7742V47.6129H51.4839V54.7097H42.4516V48.5806C42.4516 47.3355 41.4387 46.3226 40.1935 46.3226H31.8065C31.2729 46.3226 30.8387 45.8884 30.8387 45.3548C30.8387 44.8213 31.2729 44.3871 31.8065 44.3871H48.9032C52.1052 44.3871 54.7097 46.9916 54.7097 50.1936V54.7097ZM56 28.2581C56 25.7684 53.9735 23.7419 51.4839 23.7419H48.9032C46.4135 23.7419 44.3871 25.7684 44.3871 28.2581V32.7742H51.4839C53.9735 32.7742 56 30.7477 56 28.2581ZM45.6774 28.2581C45.6774 26.4794 47.1245 25.0323 48.9032 25.0323H51.4839C53.2626 25.0323 54.7097 26.4794 54.7097 28.2581C54.7097 30.0368 53.2626 31.4839 51.4839 31.4839H45.6774V28.2581ZM46.9677 28.9032H48.2581V30.1935H46.9677V28.9032ZM50.8387 28.9032H49.5484V30.1935H50.8387V28.9032ZM52.129 28.9032H53.4194V30.1935H52.129V28.9032ZM53.4194 26.3226H46.9677V27.6129H53.4194V26.3226Z" fill="white"/>
</g>
<defs>
<linearGradient id="paint0_linear" x1="-35.8489" y1="35.8489" x2="35.8489" y2="107.547" gradientUnits="userSpaceOnUse">
<stop stop-color="#33D35E"/>
<stop offset="1" stop-color="#2AB6D9"/>
</linearGradient>
</defs>
</svg>

<svg width="72" height="72" fill="none" xmlns="http://www.w3.org/2000/svg"><circle cx="36" cy="36" r="36" fill="url(#paint0_linear)"/><path fill-rule="evenodd" clip-rule="evenodd" d="M52.129 39.226a5.154 5.154 0 01-1.904 4c3.283.62 5.775 3.506 5.775 6.968V56H41.161v-7.42a.969.969 0 00-.968-.967h-.967v1.15l-1.802.444c-.08.214-.17.428-.268.641l.962 1.59-3.453 3.454-1.59-.963c-.214.1-.428.19-.642.268L31.99 56h-4.883l-.442-1.802a8.558 8.558 0 01-.642-.268l-1.59.962-3.454-3.453.963-1.59a8.664 8.664 0 01-.268-.642l-1.803-.443V43.88l1.803-.443c.079-.214.169-.428.268-.642l-.963-1.59.69-.69h-1.153a1.938 1.938 0 01-1.935-1.935v-1.29c0-1.068.868-1.936 1.935-1.936h1.29a.645.645 0 00.646-.645v-.645H16v-3.226c0-3.009 1.884-5.579 4.532-6.61a4.514 4.514 0 01-1.951-3.713A4.522 4.522 0 0123.097 16a4.522 4.522 0 014.516 4.516 4.514 4.514 0 01-1.952 3.713 7.126 7.126 0 013.887 3.67 7.128 7.128 0 013.887-3.67 4.514 4.514 0 01-1.951-3.713A4.522 4.522 0 0136 16a4.522 4.522 0 014.516 4.516 4.514 4.514 0 01-1.951 3.713c2.647 1.031 4.532 3.601 4.532 6.61v3.226h-6.452v.645c0 .356.29.645.645.645h1.29c1.068 0 1.936.868 1.936 1.935v1.29a1.938 1.938 0 01-1.935 1.936h-1.153l.69.69-.964 1.59c.028.06.051.12.075.18.016.04.032.08.05.12h6.286a5.146 5.146 0 01-1.758-3.87 5.167 5.167 0 015.16-5.161 5.167 5.167 0 015.162 5.16zm-5.161-3.871a3.875 3.875 0 00-3.871 3.87 3.875 3.875 0 003.87 3.872 3.875 3.875 0 003.872-3.871 3.875 3.875 0 00-3.871-3.871zM32.774 20.516A3.23 3.23 0 0136 17.29a3.23 3.23 0 013.226 3.226A3.23 3.23 0 0136 23.742a3.23 3.23 0 01-3.226-3.226zm9.032 10.323A5.813 5.813 0 0036 25.032a5.813 5.813 0 00-5.806 5.807v1.935h1.935v-5.161h1.29v5.161h5.162v-5.161h1.29v5.161h1.935V30.84zM19.872 20.516a3.23 3.23 0 013.226-3.226 3.23 3.23 0 013.226 3.226 3.23 3.23 0 01-3.226 3.226 3.23 3.23 0 01-3.226-3.226zm3.226 4.516a5.813 5.813 0 00-5.807 5.807v1.935h1.936v-5.161h1.29v5.161h5.161v-5.161h1.29v5.161h1.936V30.84a5.813 5.813 0 00-5.806-5.807zm-2.58 14.194a.645.645 0 01-.646-.645v-1.29c0-.357.289-.646.645-.646h1.29a1.938 1.938 0 001.936-1.935v-.645h11.613v.645c0 1.067.868 1.935 1.935 1.935h1.29c.357 0 .646.29.646.645v1.29a.645.645 0 01-.645.646h-2.444l-1.472-1.472-1.59.962a8.664 8.664 0 00-.642-.268l-.443-1.803h-4.883l-.443 1.803c-.214.08-.429.169-.642.268l-1.59-.962-1.473 1.472h-2.443zm15.906 8.898l1.512-.372v-.14H35.21a5.813 5.813 0 01-5.662 4.517 5.813 5.813 0 01-5.806-5.806 5.813 5.813 0 015.806-5.807c1.936 0 3.74.985 4.813 2.581h1.503l-.017-.034-.167-.322.81-1.338-2.022-2.021-1.338.81-.321-.167a7.084 7.084 0 00-1.113-.466l-.346-.11-.372-1.514h-2.86l-.37 1.514-.347.11a7.018 7.018 0 00-1.113.465l-.32.167-1.339-.81-2.021 2.022.81 1.338-.168.32c-.192.371-.349.746-.465 1.114l-.11.346-1.514.372v2.86l1.514.37.109.347c.117.368.273.743.466 1.113l.167.32-.81 1.339 2.021 2.021 1.338-.81.322.168c.37.192.744.349 1.114.466l.345.11.372 1.513h2.86l.37-1.514.346-.109a7.037 7.037 0 001.113-.466l.322-.167 1.338.81 2.021-2.021-.81-1.339.167-.32c.193-.37.35-.745.467-1.115l.11-.345zm-5.333-.639a1.931 1.931 0 01-3.477-1.162c0-1.068.868-1.936 1.935-1.936.046 0 .09.008.135.016.026.004.051.009.077.012a2.228 2.228 0 00-.212.94c0 .993.649 1.829 1.542 2.13zm-1.542-4.388c.429 0 .853.087 1.246.25.305-.154.647-.25 1.012-.25h.898a4.533 4.533 0 00-3.156-1.29 4.522 4.522 0 00-4.516 4.516 4.522 4.522 0 004.516 4.516 4.521 4.521 0 004.327-3.226h-1.371a3.226 3.226 0 11-2.956-4.516zM54.71 54.71h-1.936v-7.097h-1.29v7.097h-9.032v-6.13a2.26 2.26 0 00-2.258-2.257h-8.388a.969.969 0 010-1.936h17.097a5.813 5.813 0 015.807 5.807v4.516zM56 28.258a4.522 4.522 0 00-4.516-4.516h-2.58a4.522 4.522 0 00-4.517 4.516v4.516h7.097A4.522 4.522 0 0056 28.258zm-10.323 0a3.23 3.23 0 013.226-3.226h2.58a3.23 3.23 0 013.227 3.226 3.23 3.23 0 01-3.226 3.226h-5.807v-3.226zm1.29.645h1.291v1.29h-1.29v-1.29zm3.872 0h-1.29v1.29h1.29v-1.29zm1.29 0h1.29v1.29h-1.29v-1.29zm1.29-2.58h-6.451v1.29h6.451v-1.29z" fill="#fff"/><defs><linearGradient id="paint0_linear" x1="-35.849" y1="35.849" x2="35.849" y2="107.547" gradientUnits="userSpaceOnUse"><stop stop-color="#33D35E"/><stop offset="1" stop-color="#2AB6D9"/></linearGradient></defs></svg>
